!!!COM:	Bach, Johann Sebastian
!!!OMV:	Freu dich sehr, o meine Seele
!!!OTL:	Freu dich sehr, o meine Seele
**kern	**fb	**kern	**kern	**kern
*part4	*part4	*part3	*part2	*part1
*staff4	*	*staff3	*staff2	*staff1
*I"Voice	*	*I"Voice	*I"Voice	*I"Voice
*I'V	*	*I'V	*I'V	*I'V
*clefF4	*	*clefGv2	*clefG2	*clefG2
*k[f#c#g#]	*	*k[f#c#g#]	*k[f#c#g#]	*k[f#c#g#]
*M4/4	*	*M4/4	*M4/4	*M4/4
=	=	=	=	=
4A	.	4c#	4e	4a
4G#	6	4e	4e	4b
4A	5	8eL	4a	4cc#
.	6	8f#J	.	.
4B	5 #	8f#L	4d#X	4b
.	6	8g#J	.	.
=3	=3	=3	=3	=3
8c#L	6	8c#L	8eL	4a
8d#XJ	6 5	8BJ	8f#J	.
4e	9	4B	8f#L	4g#
.	8	.	8eJ	.
4A	6 5	4c#	4e	2f#
4B	#	8BL	4d#X	.
.	.	8AJ	.	.
=4	=4	=4	=4	=4
2E;	.	2G#;	2B;	2e;
4F#	.	4c#	4f#	4a
4G#	7	4B	8f#L	4b
.	6	.	8eJ	.
=5	=5	=5	=5	=5
4A	9	8BL	4e	4cc#
.	8	8AJ	.	.
4B	7	8AL	4b	4dd
.	6	8G#J	.	.
8c#L	.	4e	8bL	4cc#
8d	.	.	8aJ	.
8e	4	8eL	8aL	4b
8EJ	3	8dJ	8g#J	.
=6	=6	=6	=6	=6
1A;	.	1c#;	1e;	1a;
=7:|!	=7:|!	=7:|!	=7:|!	=7:|!
4AA	.	4e	4a	4cc#
4BB	7	4B	8aL	4dd
.	nr6	.	8gnJ	.
4C#	7 nr5	8BL	4g	4ee
.	#6\	8A#XJ	.	.
8DL	6	4B	8f#L	4dd
8EJ	.	.	8g#XJ	.
=8	=8	=8	=8	=8
!!linebreak:original
4F#	#	8F#	4a#X	4cc#
.	.	4f#	.	.
4Gn	7	.	8bL	4b
.	6	8e	8BJ	.
2F#;	#	2A#X;	2f#;	2cc#;
=9	=9	=9	=9	=9
8C#L	6	8AnL	4e	4ee
8BBJ	.	8BJ	.	.
4AA	8	4c#	8aL	4ee
.	nr7	.	8gnJ	.
4D	7	8c#L	4f#	4ff#
.	6	8BJ	.	.
4E	5	8BL	4g#X	4ee
.	6	8c#J	.	.
=10	=10	=10	=10	=10
8F#L	6 5	8c#L	8a	4dd
8G#J	6 5	8BJ	4e	.
4A	5	8c#L	.	4cc#
.	6	8d#XJ	8f#	.
2E;	.	2e;	2g#;	2b;
=11	=11	=11	=11	=11
4A	.	4e	4a	8cc#L
.	.	.	.	8ddJ
8AL	5 2	4e	4b	4ee
8G#J	.	.	.	.
4F#	6	8AL	4a	4dd
.	.	8BJ	.	.
4E#X	6	4c#	4g#	8cc#L
.	5	.	.	8bJ
=12	=12	=12	=12	=12
8F#L	9	4c#	8g#L	4a
8EnJ	.	.	8f#J	.
4D	6	8dL	8f#L	4b
.	.	8BJ	8g#J	.
8AL	6	4.f#	4a	2cc#
8BJ	.	.	.	.
4c#	4	.	4g#	.
.	#	8e#X	.	.
=13	=13	=13	=13	=13
!!linebreak:original
2F#;	.	2c#;	2f#;	2a;
4F#	5 #	4f#	4a#X	8cc#L
.	6	.	.	8ddJ
8G#L	6	8BL	8bL	4ee
8A#XJ	6 5	8c#J	8f#J	.
=14	=14	=14	=14	=14
4B	5	4d	8f#L	4dd
.	6	.	8g#J	.
8c#L	6	4e	4an	4cc#
8dJ	.	.	.	.
8EL	.	4e	4g#	4b
8DJ	.	.	.	.
8C#L	6	4e	[4a	8.cc#L
8AAJ	.	.	.	.
.	.	.	.	16ddJk
=15	=15	=15	=15	=15
2E	4	4.e	8a]	2b
.	.	.	16g#LL	.
.	.	.	16f#JJ	.
.	3	.	4g#	.
.	.	8d	.	.
2AA;	.	2c#;	2e;	2a;
=||	=||	=||	=||	=||
*-	*-	*-	*-	*-
!!!system-decoration: s1,s2,s3,s4
